**kern	**kern
*staff2	*staff1
*clefF4	*clefF4
*k[]	*k[]
*M3/4	*M3/4
*C:	*C:
=-	=-
8.CC'L 8.C'	8.G'L 8.c' 8.e'
16CC'Jk 16C'	16G'Jk 16c' 16e'
=224	=224
4CC' 4C'	4G' 4c' 4e'
4r	4r
8.CC'L 8.C'	8.E'L 8.G' 8.c'
16CC'Jk 16C'	16E'Jk 16G' 16c'
=225	=225
4CC' 4C'	4A' 4c' 4f'
4r	4r
8.CC'L 8.C'	8.G'L 8.c' 8.e'
16CC'Jk 16C'	16G'Jk 16c' 16e'
=226	=226
4CC' 4C'	4G' 4c' 4e'
4r	4r
8.CC'L 8.C'	8.F'L 8.A-' 8.B' 8.d'
16CC'Jk 16C'	16F'Jk 16A-' 16B' 16d'
=227	=227
4CC' 4C'	4E' 4G' 4c'
4r	4r
*	*clefG2
(16CLL	8r
16cJJ)	.
8r	(16eeLL
.	16eJJ)
=228	=228
(16DLL	8r
16dJJ)	.
8r	(16ffLL
.	16fJJ)
(16ELL	8r
16eJJ)	.
8r	(16ggLL
.	16gJJ)
(16FLL	8r
16fJJ)	.
8r	(16aaLL
.	16aJJ)
*clefG2	*
=229	=229
(16GLL	8r
16gJJ)	.
8r	(16bbLL
.	16bJJ)
(16ALL	8r
16aJJ)	.
8r	(16cccLL
.	16ccJJ)
(16BLL	8r
16bJJ)	.
8r	(16dddLL
.	16ddJJ)
=230	=230
(16cLL	8r
16ccJJ)	.
8r	(16eeeLL
.	16eeJJ)
(16dLL	8r
16ddJJ)	.
8r	(16fffLL
.	16ffJJ)
(16GLL	8r
16gJJ)	.
8r	(16bbLL
.	16ffJJ)
*clefF4	*
=231	=231
4C 4c	4ee 4ccc
4r	4r
=	=
*-	*-
